Newaita-dark/apps/64/system-help.svg

<svg height="64pt" viewBox="0 0 64 64" width="64pt" xmlns="http://www.w3.org/2000/svg" xmlns:xlink="http://www.w3.org/1999/xlink"><linearGradient id="a"><stop offset="0" stop-opacity=".313726"/><stop offset=".222222" stop-opacity=".27451"/><stop offset="1" stop-opacity="0"/></linearGradient><radialGradient id="b" cx="450.908936" cy="189.579361" gradientTransform="matrix(.00000035 -.156265 -.281277 -.0000002 89.046304 127.190659)" gradientUnits="userSpaceOnUse" r="21.166656" xlink:href="#a"/><radialGradient id="c" cx="450.908936" cy="189.579361" gradientTransform="matrix(-.00000035 .156265 .281277 .0000002 -25.540237 -15.054964)" gradientUnits="userSpaceOnUse" r="21.166656" xlink:href="#a"/><radialGradient id="d" cx="450.908936" cy="189.579361" gradientTransform="matrix(-.00000035 -.156265 .281277 -.0000002 -25.540237 127.190659)" gradientUnits="userSpaceOnUse" r="21.166656" xlink:href="#a"/><radialGradient id="e" cx="450.908936" cy="189.579361" gradientTransform="matrix(.00000035 .156265 -.281277 .0000002 89.0463 -15.054965)" gradientUnits="userSpaceOnUse" r="21.166656" xlink:href="#a"/><linearGradient id="f" gradientTransform="matrix(.0267201 0 0 .125012 24.930772 26.877567)" gradientUnits="userSpaceOnUse" x1="255.323059" x2="255.323044" y1="233.5" y2="254.666656"><stop offset="0" stop-opacity=".27451"/><stop offset="1" stop-opacity="0"/></linearGradient><linearGradient id="g" gradientUnits="userSpaceOnUse" x1="31.753056" x2="31.753056" y1="56.06789790428" y2="5.79222438278"><stop offset="0" stop-color="#e0e0e0"/><stop offset="1" stop-color="#eee"/></linearGradient><linearGradient id="h" gradientTransform="matrix(.0233883 -.0233883 -.0233883 -.0233883 31.171086 75.25363)" gradientUnits="userSpaceOnUse" x1="422.598206" x2="1497.400513" y1="397.716309" y2="1472.518677"><stop offset="0" stop-color="#ef5350"/><stop offset="1" stop-color="#e57373"/></linearGradient><path d="m36.382812 56.066406h5.292969v-2.644531h-5.292969zm0 0" fill="url(#b)"/><path d="m27.121094 56.066406h-5.289063v2.648438h5.289063zm0 0" fill="url(#c)"/><path d="m27.121094 56.066406h-5.289063v-2.644531h5.289063zm0 0" fill="url(#d)"/><path d="m36.382812 56.066406h5.292969v2.648438h-5.292969zm0 0" fill="url(#e)"/><path d="m27.121094 55.40625h9.261718v3.308594h-9.261718zm0 0" fill="url(#f)"/><path d="m31.753906 5.792969c-13.925781 0-25.140625 11.210937-25.140625 25.136719 0 13.925781 11.214844 25.136718 25.140625 25.136718 13.925782 0 25.136719-11.210937 25.136719-25.136718 0-13.925782-11.210937-25.136719-25.136719-25.136719zm0 14.550781c5.863282 0 10.582032 4.722656 10.582032 10.585938 0 5.863281-4.71875 10.585937-10.582032 10.585937-5.863281 0-10.585937-4.722656-10.585937-10.585937 0-5.863282 4.722656-10.585938 10.585937-10.585938zm0 0" fill="url(#g)"/><path d="m31.753906 5.792969c-13.925781 0-25.140625 11.210937-25.140625 25.136719 0 .167968.003907.332031.007813.496093.261718-13.695312 11.371094-24.640625 25.132812-24.640625 13.757813 0 24.867188 10.945313 25.132813 24.640625.003906-.164062.003906-.328125.003906-.496093 0-13.925782-11.210937-25.136719-25.136719-25.136719zm-10.574218 25.632812c-.007813.164063-.011719.332031-.011719.496094 0 5.863281 4.722656 10.585937 10.585937 10.585937 5.863282 0 10.582032-4.722656 10.582032-10.585937 0-.164063-.003907-.332031-.011719-.496094-.253907 5.632813-4.875 10.089844-10.570313 10.089844-5.699218 0-10.316406-4.457031-10.574218-10.089844zm0 0" fill="#f8f8f8"/><path d="m13.976562 13.15625c-1.78125 1.777344-3.238281 3.757812-4.375 5.859375l12.328126 7.703125.1875-.1875c.511718-1.117188 1.230468-2.164062 2.152343-3.085938.921875-.921874 1.96875-1.636718 3.085938-2.148437l.1875-.191406-7.703125-12.328125c-2.105469 1.136718-4.082032 2.597656-5.863282 4.378906zm-4.375 29.6875c1.136719 2.105469 2.59375 4.082031 4.375 5.863281 1.78125 1.777344 3.757813 3.238281 5.863282 4.375l7.703125-12.328125-.1875-.1875c-1.117188-.511718-2.164063-1.230468-3.085938-2.152344-.921875-.921874-1.640625-1.96875-2.152343-3.085937l-.1875-.1875zm34.066407-34.066406-7.703125 12.328125.1875.191406c1.117187.511719 2.164062 1.226563 3.085937 2.148437.921875.921876 1.636719 1.96875 2.148438 3.085938l.1875.1875 12.328125-7.703125c-1.136719-2.101563-2.59375-4.082031-4.375-5.859375-1.78125-1.78125-3.757813-3.242188-5.859375-4.378906zm-7.703125 31.976562 7.703125 12.328125c2.101562-1.136719 4.078125-2.597656 5.859375-4.375 1.78125-1.78125 3.238281-3.757812 4.375-5.863281l-12.328125-7.703125-.1875.1875c-.511719 1.117187-1.226563 2.164063-2.148438 3.085937-.921875.921876-1.96875 1.640626-3.085937 2.152344zm0 0" fill="url(#h)"/><path d="m31.753906 5.605469c-14.027344 0-25.328125 11.296875-25.328125 25.324219 0 14.027343 11.300781 25.324218 25.328125 25.324218s25.324219-11.296875 25.324219-25.324218c0-14.027344-11.296875-25.324219-25.324219-25.324219zm0 .375c13.824219 0 24.949219 11.125 24.949219 24.949219 0 13.824218-11.125 24.949218-24.949219 24.949218-13.828125 0-24.953125-11.125-24.953125-24.949218 0-13.824219 11.125-24.949219 24.953125-24.949219zm0 0" fill="#212121"/><path d="m6.621094 30.410156c-.003906.171875-.007813.347656-.007813.519532 0 13.925781 11.214844 25.136718 25.140625 25.136718 13.925782 0 25.136719-11.210937 25.136719-25.136718 0-.171876-.003906-.347657-.003906-.519532-.277344 13.683594-11.382813 24.617188-25.132813 24.617188-13.753906 0-24.859375-10.933594-25.132812-24.617188zm0 0" fill-opacity=".235294"/><path d="m31.753906 5.605469c-14.027344 0-25.328125 11.296875-25.328125 25.324219 0 14.027343 11.300781 25.324218 25.328125 25.324218s25.324219-11.296875 25.324219-25.324218c0-14.027344-11.296875-25.324219-25.324219-25.324219zm0 .375c13.824219 0 24.949219 11.125 24.949219 24.949219 0 13.824218-11.125 24.949218-24.949219 24.949218-13.828125 0-24.949218-11.125-24.949218-24.949218 0-13.824219 11.121093-24.949219 24.949218-24.949219zm0 14.175781c-5.964844 0-10.773437 4.808594-10.773437 10.773438 0 5.964843 4.808593 10.773437 10.773437 10.773437s10.769532-4.808594 10.769532-10.773437c0-5.964844-4.804688-10.773438-10.769532-10.773438zm0 .375c5.761719 0 10.394532 4.636719 10.394532 10.398438 0 5.761718-4.632813 10.398437-10.394532 10.398437-5.765625 0-10.398437-4.636719-10.398437-10.398437 0-5.761719 4.632812-10.398438 10.398437-10.398438zm0 0" fill="#333"/><path d="m19.839844 8.777344c-2.105469 1.136718-4.082032 2.597656-5.863282 4.378906-1.777343 1.78125-3.238281 3.757812-4.375 5.859375l.394532.246094c1.074218-1.839844 2.402344-3.578125 3.980468-5.15625 1.78125-1.78125 3.757813-3.238281 5.863282-4.375l7.292968 11.667969c.074219-.035157.148438-.070313.222657-.101563l.1875-.191406zm23.828125 0-7.703125 12.328125.1875.191406c.074218.03125.148437.066406.222656.101563l7.292969-11.667969c2.101562 1.136719 4.078125 2.59375 5.859375 4.375 1.582031 1.578125 2.910156 3.316406 3.980468 5.15625l.394532-.246094c-1.136719-2.101563-2.59375-4.078125-4.375-5.859375s-3.757813-3.242188-5.859375-4.378906zm-21.738281 26.363281-12.328126 7.703125c.128907.238281.261719.472656.394532.703125l11.933594-7.457031.1875.1875c.511718 1.117187 1.230468 2.164062 2.152343 3.085937.859375.863281 1.828125 1.542969 2.863281 2.046875l.410157-.65625-.1875-.1875c-1.117188-.511718-2.164063-1.230468-3.085938-2.152344-.921875-.921874-1.640625-1.96875-2.152343-3.085937zm19.644531 0-.1875.1875c-.511719 1.117187-1.226563 2.164063-2.148438 3.085937-.921875.921876-1.96875 1.640626-3.085937 2.152344l-.1875.1875.410156.65625c1.03125-.503906 2-1.183594 2.863281-2.046875.921875-.921875 1.636719-1.96875 2.148438-3.085937l.1875-.1875 11.933593 7.457031c.136719-.230469.269532-.464844.394532-.703125zm0 0" fill="#fff" fill-opacity=".392157"/><path d="m111.801823-109.76005c-14.248639 14.217392-25.903776 30.05963-34.996658 46.870524l98.615583 61.619116 1.499857-1.499857c4.093359-8.936647 9.84281-17.310847 17.217106-24.685143 7.374296-7.374295 15.748496-13.092499 24.685142-17.185858l1.499857-1.531104-61.619115-98.615583c-16.842142 9.092882-32.653132 20.779266-46.901772 35.027905zm-34.996658 237.477322c9.092882 16.842142 20.748019 32.653132 34.996658 46.901771 14.24864 14.217393 30.05963 25.903777 46.901772 34.996658l61.619115-98.615582-1.499857-1.499857c-8.936646-4.093359-17.310846-9.84281-24.685142-17.217106s-13.123747-15.748496-17.217106-24.685143l-1.499857-1.499857zm272.505228-272.505227-61.619116 98.615583 1.499857 1.531104c8.936646 4.093359 17.310847 9.811563 24.685142 17.185858 7.374296 7.374296 13.0925 15.748496 17.185859 24.685143l1.499857 1.499857 98.615583-61.619116c-9.092882-16.810894-20.748019-32.653132-34.996658-46.870524-14.24864-14.248639-30.05963-25.935023-46.870524-35.027905zm-61.619116 255.788074 61.619116 98.615582c16.810894-9.092881 32.621884-20.779265 46.870524-34.996658 14.248639-14.248639 25.903776-30.059629 34.996658-46.901771l-98.615583-61.619116-1.499857 1.499857c-4.093359 8.936647-9.811563 17.310847-17.185859 24.685143-7.374295 7.374296-15.748496 13.123747-24.685142 17.217106zm0 0" fill="none" stroke="#212121" stroke-linecap="square" stroke-linejoin="bevel" stroke-width="3" transform="matrix(.125012 0 0 .125012 0 26.877566)"/></svg>

<?xml version="1.0" encoding="UTF-8"?>
<svg xmlns="http://www.w3.org/2000/svg" xmlns:xlink="http://www.w3.org/1999/xlink" width="64pt" height="64pt" viewBox="0 0 64 64" version="1.1">
<defs>
<radialGradient id="radial0" gradientUnits="userSpaceOnUse" cx="450.908936" cy="189.579361" fx="450.908936" fy="189.579361" r="21.166656" gradientTransform="matrix(0.000000348341,-0.156265,-0.281277,-0.000000203077,89.046304,127.190659)">
<stop offset="0" style="stop-color:rgb(0%,0%,0%);stop-opacity:0.313726;"/>
<stop offset="0.222222" style="stop-color:rgb(0%,0%,0%);stop-opacity:0.27451;"/>
<stop offset="1" style="stop-color:rgb(0%,0%,0%);stop-opacity:0;"/>
</radialGradient>
<radialGradient id="radial1" gradientUnits="userSpaceOnUse" cx="450.908936" cy="189.579361" fx="450.908936" fy="189.579361" r="21.166656" gradientTransform="matrix(-0.000000348341,0.156265,0.281277,0.000000203077,-25.540237,-15.054964)">
<stop offset="0" style="stop-color:rgb(0%,0%,0%);stop-opacity:0.313726;"/>
<stop offset="0.222222" style="stop-color:rgb(0%,0%,0%);stop-opacity:0.27451;"/>
<stop offset="1" style="stop-color:rgb(0%,0%,0%);stop-opacity:0;"/>
</radialGradient>
<radialGradient id="radial2" gradientUnits="userSpaceOnUse" cx="450.908936" cy="189.579361" fx="450.908936" fy="189.579361" r="21.166656" gradientTransform="matrix(-0.000000348341,-0.156265,0.281277,-0.000000203077,-25.540237,127.190659)">
<stop offset="0" style="stop-color:rgb(0%,0%,0%);stop-opacity:0.313726;"/>
<stop offset="0.222222" style="stop-color:rgb(0%,0%,0%);stop-opacity:0.27451;"/>
<stop offset="1" style="stop-color:rgb(0%,0%,0%);stop-opacity:0;"/>
</radialGradient>
<radialGradient id="radial3" gradientUnits="userSpaceOnUse" cx="450.908936" cy="189.579361" fx="450.908936" fy="189.579361" r="21.166656" gradientTransform="matrix(0.000000348341,0.156265,-0.281277,0.000000203077,89.0463,-15.054965)">
<stop offset="0" style="stop-color:rgb(0%,0%,0%);stop-opacity:0.313726;"/>
<stop offset="0.222222" style="stop-color:rgb(0%,0%,0%);stop-opacity:0.27451;"/>
<stop offset="1" style="stop-color:rgb(0%,0%,0%);stop-opacity:0;"/>
</radialGradient>
<linearGradient id="linear0" gradientUnits="userSpaceOnUse" x1="255.323059" y1="233.5" x2="255.323044" y2="254.666656" gradientTransform="matrix(0.0267201,0,0,0.125012,24.930772,26.877567)">
<stop offset="0" style="stop-color:rgb(0%,0%,0%);stop-opacity:0.27451;"/>
<stop offset="1" style="stop-color:rgb(0%,0%,0%);stop-opacity:0;"/>
</linearGradient>
<linearGradient id="linear1" gradientUnits="userSpaceOnUse" x1="960" y1="1695.118164" x2="960" y2="175.118118" gradientTransform="matrix(0.0330761,0,0,0.0330761,0,0)">
<stop offset="0" style="stop-color:rgb(87.843138%,87.843138%,87.843138%);stop-opacity:1;"/>
<stop offset="1" style="stop-color:rgb(93.333334%,93.333334%,93.333334%);stop-opacity:1;"/>
</linearGradient>
<linearGradient id="linear2" gradientUnits="userSpaceOnUse" x1="422.598206" y1="397.716309" x2="1497.400513" y2="1472.518677" gradientTransform="matrix(0.0233883,-0.0233883,-0.0233883,-0.0233883,31.171086,75.25363)">
<stop offset="0" style="stop-color:rgb(93.725491%,32.549021%,31.37255%);stop-opacity:1;"/>
<stop offset="1" style="stop-color:rgb(89.803922%,45.09804%,45.09804%);stop-opacity:1;"/>
</linearGradient>
</defs>
<g id="surface1">
<path style=" stroke:none;fill-rule:nonzero;fill:url(#radial0);" d="M 36.382812 56.066406 L 41.675781 56.066406 L 41.675781 53.421875 L 36.382812 53.421875 Z M 36.382812 56.066406 "/>
<path style=" stroke:none;fill-rule:nonzero;fill:url(#radial1);" d="M 27.121094 56.066406 L 21.832031 56.066406 L 21.832031 58.714844 L 27.121094 58.714844 Z M 27.121094 56.066406 "/>
<path style=" stroke:none;fill-rule:nonzero;fill:url(#radial2);" d="M 27.121094 56.066406 L 21.832031 56.066406 L 21.832031 53.421875 L 27.121094 53.421875 Z M 27.121094 56.066406 "/>
<path style=" stroke:none;fill-rule:nonzero;fill:url(#radial3);" d="M 36.382812 56.066406 L 41.675781 56.066406 L 41.675781 58.714844 L 36.382812 58.714844 Z M 36.382812 56.066406 "/>
<path style=" stroke:none;fill-rule:nonzero;fill:url(#linear0);" d="M 27.121094 55.40625 L 36.382812 55.40625 L 36.382812 58.714844 L 27.121094 58.714844 Z M 27.121094 55.40625 "/>
<path style=" stroke:none;fill-rule:nonzero;fill:url(#linear1);" d="M 31.753906 5.792969 C 17.828125 5.792969 6.613281 17.003906 6.613281 30.929688 C 6.613281 44.855469 17.828125 56.066406 31.753906 56.066406 C 45.679688 56.066406 56.890625 44.855469 56.890625 30.929688 C 56.890625 17.003906 45.679688 5.792969 31.753906 5.792969 Z M 31.753906 20.34375 C 37.617188 20.34375 42.335938 25.066406 42.335938 30.929688 C 42.335938 36.792969 37.617188 41.515625 31.753906 41.515625 C 25.890625 41.515625 21.167969 36.792969 21.167969 30.929688 C 21.167969 25.066406 25.890625 20.34375 31.753906 20.34375 Z M 31.753906 20.34375 "/>
<path style=" stroke:none;fill-rule:nonzero;fill:rgb(97.254902%,97.254902%,97.254902%);fill-opacity:1;" d="M 31.753906 5.792969 C 17.828125 5.792969 6.613281 17.003906 6.613281 30.929688 C 6.613281 31.097656 6.617188 31.261719 6.621094 31.425781 C 6.882812 17.730469 17.992188 6.785156 31.753906 6.785156 C 45.511719 6.785156 56.621094 17.730469 56.886719 31.425781 C 56.890625 31.261719 56.890625 31.097656 56.890625 30.929688 C 56.890625 17.003906 45.679688 5.792969 31.753906 5.792969 Z M 21.179688 31.425781 C 21.171875 31.589844 21.167969 31.757812 21.167969 31.921875 C 21.167969 37.785156 25.890625 42.507812 31.753906 42.507812 C 37.617188 42.507812 42.335938 37.785156 42.335938 31.921875 C 42.335938 31.757812 42.332031 31.589844 42.324219 31.425781 C 42.070312 37.058594 37.449219 41.515625 31.753906 41.515625 C 26.054688 41.515625 21.4375 37.058594 21.179688 31.425781 Z M 21.179688 31.425781 "/>
<path style=" stroke:none;fill-rule:nonzero;fill:url(#linear2);" d="M 13.976562 13.15625 C 12.195312 14.933594 10.738281 16.914062 9.601562 19.015625 L 21.929688 26.71875 L 22.117188 26.53125 C 22.628906 25.414062 23.347656 24.367188 24.269531 23.445312 C 25.191406 22.523438 26.238281 21.808594 27.355469 21.296875 L 27.542969 21.105469 L 19.839844 8.777344 C 17.734375 9.914062 15.757812 11.375 13.976562 13.15625 Z M 9.601562 42.84375 C 10.738281 44.949219 12.195312 46.925781 13.976562 48.707031 C 15.757812 50.484375 17.734375 51.945312 19.839844 53.082031 L 27.542969 40.753906 L 27.355469 40.566406 C 26.238281 40.054688 25.191406 39.335938 24.269531 38.414062 C 23.347656 37.492188 22.628906 36.445312 22.117188 35.328125 L 21.929688 35.140625 Z M 43.667969 8.777344 L 35.964844 21.105469 L 36.152344 21.296875 C 37.269531 21.808594 38.316406 22.523438 39.238281 23.445312 C 40.160156 24.367188 40.875 25.414062 41.386719 26.53125 L 41.574219 26.71875 L 53.902344 19.015625 C 52.765625 16.914062 51.308594 14.933594 49.527344 13.15625 C 47.746094 11.375 45.769531 9.914062 43.667969 8.777344 Z M 35.964844 40.753906 L 43.667969 53.082031 C 45.769531 51.945312 47.746094 50.484375 49.527344 48.707031 C 51.308594 46.925781 52.765625 44.949219 53.902344 42.84375 L 41.574219 35.140625 L 41.386719 35.328125 C 40.875 36.445312 40.160156 37.492188 39.238281 38.414062 C 38.316406 39.335938 37.269531 40.054688 36.152344 40.566406 Z M 35.964844 40.753906 "/>
<path style=" stroke:none;fill-rule:nonzero;fill:rgb(12.941177%,12.941177%,12.941177%);fill-opacity:1;" d="M 31.753906 5.605469 C 17.726562 5.605469 6.425781 16.902344 6.425781 30.929688 C 6.425781 44.957031 17.726562 56.253906 31.753906 56.253906 C 45.78125 56.253906 57.078125 44.957031 57.078125 30.929688 C 57.078125 16.902344 45.78125 5.605469 31.753906 5.605469 Z M 31.753906 5.980469 C 45.578125 5.980469 56.703125 17.105469 56.703125 30.929688 C 56.703125 44.753906 45.578125 55.878906 31.753906 55.878906 C 17.925781 55.878906 6.800781 44.753906 6.800781 30.929688 C 6.800781 17.105469 17.925781 5.980469 31.753906 5.980469 Z M 31.753906 5.980469 "/>
<path style=" stroke:none;fill-rule:nonzero;fill:rgb(0%,0%,0%);fill-opacity:0.235294;" d="M 6.621094 30.410156 C 6.617188 30.582031 6.613281 30.757812 6.613281 30.929688 C 6.613281 44.855469 17.828125 56.066406 31.753906 56.066406 C 45.679688 56.066406 56.890625 44.855469 56.890625 30.929688 C 56.890625 30.757812 56.886719 30.582031 56.886719 30.410156 C 56.609375 44.09375 45.503906 55.027344 31.753906 55.027344 C 18 55.027344 6.894531 44.09375 6.621094 30.410156 Z M 6.621094 30.410156 "/>
<path style=" stroke:none;fill-rule:nonzero;fill:rgb(20%,20%,20%);fill-opacity:1;" d="M 31.753906 5.605469 C 17.726562 5.605469 6.425781 16.902344 6.425781 30.929688 C 6.425781 44.957031 17.726562 56.253906 31.753906 56.253906 C 45.78125 56.253906 57.078125 44.957031 57.078125 30.929688 C 57.078125 16.902344 45.78125 5.605469 31.753906 5.605469 Z M 31.753906 5.980469 C 45.578125 5.980469 56.703125 17.105469 56.703125 30.929688 C 56.703125 44.753906 45.578125 55.878906 31.753906 55.878906 C 17.925781 55.878906 6.804688 44.753906 6.804688 30.929688 C 6.804688 17.105469 17.925781 5.980469 31.753906 5.980469 Z M 31.753906 20.15625 C 25.789062 20.15625 20.980469 24.964844 20.980469 30.929688 C 20.980469 36.894531 25.789062 41.703125 31.753906 41.703125 C 37.71875 41.703125 42.523438 36.894531 42.523438 30.929688 C 42.523438 24.964844 37.71875 20.15625 31.753906 20.15625 Z M 31.753906 20.53125 C 37.515625 20.53125 42.148438 25.167969 42.148438 30.929688 C 42.148438 36.691406 37.515625 41.328125 31.753906 41.328125 C 25.988281 41.328125 21.355469 36.691406 21.355469 30.929688 C 21.355469 25.167969 25.988281 20.53125 31.753906 20.53125 Z M 31.753906 20.53125 "/>
<path style=" stroke:none;fill-rule:nonzero;fill:rgb(100%,100%,100%);fill-opacity:0.392157;" d="M 19.839844 8.777344 C 17.734375 9.914062 15.757812 11.375 13.976562 13.15625 C 12.199219 14.9375 10.738281 16.914062 9.601562 19.015625 L 9.996094 19.261719 C 11.070312 17.421875 12.398438 15.683594 13.976562 14.105469 C 15.757812 12.324219 17.734375 10.867188 19.839844 9.730469 L 27.132812 21.398438 C 27.207031 21.363281 27.28125 21.328125 27.355469 21.296875 L 27.542969 21.105469 Z M 43.667969 8.777344 L 35.964844 21.105469 L 36.152344 21.296875 C 36.226562 21.328125 36.300781 21.363281 36.375 21.398438 L 43.667969 9.730469 C 45.769531 10.867188 47.746094 12.324219 49.527344 14.105469 C 51.109375 15.683594 52.4375 17.421875 53.507812 19.261719 L 53.902344 19.015625 C 52.765625 16.914062 51.308594 14.9375 49.527344 13.15625 C 47.746094 11.375 45.769531 9.914062 43.667969 8.777344 Z M 21.929688 35.140625 L 9.601562 42.84375 C 9.730469 43.082031 9.863281 43.316406 9.996094 43.546875 L 21.929688 36.089844 L 22.117188 36.277344 C 22.628906 37.394531 23.347656 38.441406 24.269531 39.363281 C 25.128906 40.226562 26.097656 40.90625 27.132812 41.410156 L 27.542969 40.753906 L 27.355469 40.566406 C 26.238281 40.054688 25.191406 39.335938 24.269531 38.414062 C 23.347656 37.492188 22.628906 36.445312 22.117188 35.328125 Z M 41.574219 35.140625 L 41.386719 35.328125 C 40.875 36.445312 40.160156 37.492188 39.238281 38.414062 C 38.316406 39.335938 37.269531 40.054688 36.152344 40.566406 L 35.964844 40.753906 L 36.375 41.410156 C 37.40625 40.90625 38.375 40.226562 39.238281 39.363281 C 40.160156 38.441406 40.875 37.394531 41.386719 36.277344 L 41.574219 36.089844 L 53.507812 43.546875 C 53.644531 43.316406 53.777344 43.082031 53.902344 42.84375 Z M 41.574219 35.140625 "/>
<path style="fill:none;stroke-width:3;stroke-linecap:square;stroke-linejoin:bevel;stroke:rgb(12.941177%,12.941177%,12.941177%);stroke-opacity:1;stroke-miterlimit:4;" d="M 111.801823 -109.76005 C 97.553184 -95.542658 85.898047 -79.70042 76.805165 -62.889526 L 175.420748 -1.27041 L 176.920605 -2.770267 C 181.013964 -11.706914 186.763415 -20.081114 194.137711 -27.45541 C 201.512007 -34.829705 209.886207 -40.547909 218.822853 -44.641268 L 220.32271 -46.172372 L 158.703595 -144.787955 C 141.861453 -135.695073 126.050463 -124.008689 111.801823 -109.76005 Z M 76.805165 127.717272 C 85.898047 144.559414 97.553184 160.370404 111.801823 174.619043 C 126.050463 188.836436 141.861453 200.52282 158.703595 209.615701 L 220.32271 111.000119 L 218.822853 109.500262 C 209.886207 105.406903 201.512007 99.657452 194.137711 92.283156 C 186.763415 84.90886 181.013964 76.53466 176.920605 67.598013 L 175.420748 66.098156 Z M 349.310393 -144.787955 L 287.691277 -46.172372 L 289.191134 -44.641268 C 298.12778 -40.547909 306.501981 -34.829705 313.876276 -27.45541 C 321.250572 -20.081114 326.968776 -11.706914 331.062135 -2.770267 L 332.561992 -1.27041 L 431.177575 -62.889526 C 422.084693 -79.70042 410.429556 -95.542658 396.180917 -109.76005 C 381.932277 -124.008689 366.121287 -135.695073 349.310393 -144.787955 Z M 287.691277 111.000119 L 349.310393 209.615701 C 366.121287 200.52282 381.932277 188.836436 396.180917 174.619043 C 410.429556 160.370404 422.084693 144.559414 431.177575 127.717272 L 332.561992 66.098156 L 331.062135 67.598013 C 326.968776 76.53466 321.250572 84.90886 313.876276 92.283156 C 306.501981 99.657452 298.12778 105.406903 289.191134 109.500262 Z M 287.691277 111.000119 " transform="matrix(0.125012,0,0,0.125012,0,26.877566)"/>
</g>
</svg>
